X:1
T:Juan Murray
M:6/8
L:1/8
K:Eb
 E| EGB BGE| FEF G2 B/2B/2| cec BGF| EDE F2 B/2B/2| ccc BBB| ccc B2 G/2F/2|\
 EEE FEF| GEF E2||
